!! 00000] TT[WS
!!!OTL: Xiaonigu sichuen
!!!ARE: Asia, China, Shanxi Hejin
!! Ethnic Group: Han
!! WII, 182
!!!SCT: J0677
!!!YEM: Copyright 1995, estate of Helmut Schaffrath.
**kern
*ICvox
*Ivox
*M2/4
*k[b-]
*F:
{8dd
16dd
16ff
8cc
8cc
=1
8dd
16dd
16ff
8cc
8cc
=2
8dd
16dd
16ff
8.dd
16cc
=3
8.a
16f
4g}
=4
{8cc
16g
16b-
4cc
=5
8dd
16dd
16ff
4cc
=6
8g
16g
16a
8f
8d
=7
2c}
=8
{8ff
8a
8cc
8cc
=9
8g
8a
4g
=10
8g
8a
8g
8f
=11
8.d
16c
4d}
=12
{8cc
16g
16b-
4cc
=13
8dd
16dd
16ff
4cc
=14
8d
8f
8r
8cc
=15
4g
8f
8d
=16
2c}
==
!!!AGN: Xiaodiao. Sichun
!!!ONB: ESAC (Essen Associative Code) Database: CHINA
!!!AMT: simple duple
!!!AIN: vox
!!!EED: Helmut Schaffrath
!!!EEV: 1.0
*-
